icons/Document/book-line.svg

<svg viewBox="0 0 24 24" xmlns="http://www.w3.org/2000/svg"><path d="M3 18.5V5C3 3.34315 4.34315 2 6 2H20C20.5523 2 21 2.44772 21 3V21C21 21.5523 20.5523 22 20 22H6.5C4.567 22 3 20.433 3 18.5ZM19 20V17H6.5C5.67157 17 5 17.6716 5 18.5C5 19.3284 5.67157 20 6.5 20H19ZM5 15.3368C5.45463 15.1208 5.9632 15 6.5 15H19V4H6C5.44772 4 5 4.44772 5 5V15.3368Z"/></svg>

<svg xmlns="http://www.w3.org/2000/svg" viewBox="0 0 24 24">
    <g>
        <path fill="none" d="M0 0h24v24H0z"/>
        <path d="M3 18.5V5a3 3 0 0 1 3-3h14a1 1 0 0 1 1 1v18a1 1 0 0 1-1 1H6.5A3.5 3.5 0 0 1 3 18.5zM19 20v-3H6.5a1.5 1.5 0 0 0 0 3H19zM5 15.337A3.486 3.486 0 0 1 6.5 15H19V4H6a1 1 0 0 0-1 1v10.337z"/>
    </g>
</svg>
